!!!OTL: D&szlig; bhfaghainn mo Rogha de thriúr aca, S. 29
!!!id: I0533
**kern
*clefG2
*k[]
*A:
{8e
=1
4a
8a
8a
8cc#
8dd
=2
4ee
8ee
4b}
=3
{8dd
=4
4cc#
8cc#
4a
8cc#
=5
4b
8g#
4e}
=6
{8g#
=7
4a
8a
8a
8cc#
8dd
=8
4ee
8ee
4b
8dd}
=9
{8cc#
8b
8a
8b
8a
8g#
=10
4.a
4a}
==
*-
!!!minrhy: 8
!!!meters: 6/8 ]  ZZ[4
!!!cut: D&szlig; bhfaghainn mo Rogha de thriúr aca, S. 29
!!!reg: Irland
!!!trd: O'SULLIVAN, Donal: Song of the Irish
!!!rhy1: X  X_XXXX  X_XX_
!!!rhy2: X  X_XX_X  X_XX_
!!!key: I0533  08  A 6/8 ]  ZZ[4
!!!mod: SECHSTONSKALA DUR ?]  AMBITUS[8
!!!kad: 2-541
!!!akz: 1152_312-5_1152_3211_
!!!fot: 'a__b__av_c__
!!!for: 'a__b__aw_c__
!!!fok: '^a_\__/__\__
!! PHRAS[VORWIEGEND AUFTAKTIG]
!!!fkt: Kinderlied
!! IRISCHE V
!! PR[22] 2K[8] 2G[18] 3K[8] 3G[4] 4A[2] 4Ü[0] 5A[0] 6K[0] 6G[0]
!! 7K[0] 7G[0] 8A[0] MEHR[0] SI[40] ABS[110] SR[26] SP[14]
!! ST[22] 2k[5] 2g[18] 3k[8] 3g[2] 4d[5] 4ü[0] 5d[0] 6k[0] 6g[0]
!! 7k[0] 7g[0] 8d[0] mehr[0] si[38] dm[+2] sr[24] sp[15]
!! 1F[6] 2F[76] 3F[12] 4F[0] LF[0] 2P[3] 3P[3] 4P[0] TRI[0] DF[5] AB[114]
!! TF[0] U3K[0] U3[5] U4[4] U4Ü[0] U5[14] U6K[0] U6[6] U7K[0] U7[0]
!! N1[23] N2K[0] N2[14] N3K[0] N3[20] N4[10] N4Ü[0] N5[5] N6K[0] N6[0]
!!!n7k: 0] N7[0] O1[0] O2K[0] O2[0] O3K[0] O3[0] HÖ[0
!!!RNB: symbol: &szlig; = sz ligature (UTF-8: ÃŸ)
